X: 3413
Q: "Tempo di marcia."
M: C
L: 1/8
K: C
uG>uG |\
vc2 uc>uc c2e>d | cGEG c2c>d | e2e>e e>fg>f | edcd e2e>f |\
g2g>g g_bag | f2f>f fagf | e>dc>d egfe | d2[dD]>[dD] [d2D2] :|
|: B>A |\
af de/f/ ge cd/e/ | fedc cBAG | A>Bc>d e>fd>e | c2[cE]>[cE] [c2E2] :|


